X: 45
M:6/8
L:1/8
K:G
|:D|GBd GBd|gfg dBG|GBd efg|fdd def|
geg fdf|ece d2 B|cBc Adc|BGG G2:||

